src/images/tech/redux.svg

<svg viewBox="0 0 105 100" fill="none" xmlns="http://www.w3.org/2000/svg">
<path d="M72.6971 69.5627C76.5688 69.1619 79.5061 65.8242 79.3725 61.8184C79.2393 57.8131 75.9012 54.6086 71.8959 54.6086H71.6291C67.4897 54.7422 64.2856 58.2135 64.4193 62.3525C64.5529 64.3553 65.3537 66.091 66.5553 67.2926C62.016 76.2385 55.0734 82.7807 44.6594 88.2549C37.5832 91.9934 30.2402 93.3287 22.8971 92.3943C16.8889 91.593 12.216 88.923 9.27827 84.5164C5.00614 77.9742 4.60573 70.8975 8.21065 63.8213C10.7475 58.7475 14.7525 55.009 17.2893 53.1398C16.7553 51.4041 15.9541 48.4668 15.5537 46.3307C-3.80574 60.35 -1.80287 79.3094 4.07172 88.2549C8.47745 94.9311 17.4229 99.0701 27.3029 99.0701C29.9729 99.0701 32.643 98.8029 35.3135 98.1357C52.4033 94.7975 65.3541 84.65 72.6971 69.5627ZM96.1955 53.0066C86.0483 41.1234 71.0951 34.5811 54.0053 34.5811H51.8693C50.6676 32.1779 48.1307 30.5754 45.327 30.5754H45.0598C40.9213 30.709 37.7172 34.1803 37.8504 38.3197C37.984 42.325 41.3217 45.5295 45.327 45.5295H45.5938C48.5311 45.3959 51.068 43.5266 52.1361 40.9898H54.5393C64.6865 40.9898 74.2992 43.927 82.9779 49.6684C89.6533 54.0746 94.4598 59.816 97.1299 66.7586C99.3996 72.3664 99.266 77.8406 96.8627 82.5139C93.1246 89.5902 86.8496 93.4623 78.5717 93.4623C73.2311 93.4623 68.1578 91.8598 65.4873 90.6582C64.0188 91.9934 61.3484 94.1295 59.4791 95.4652C65.2205 98.1352 71.0951 99.6041 76.7025 99.6041C89.5197 99.6041 98.9992 92.5275 102.604 85.4512C106.476 77.707 106.209 64.3553 96.1955 53.0066ZM28.3709 71.832C28.5045 75.8377 31.8422 79.0418 35.8475 79.0418H36.1147C40.2537 78.9086 43.4578 75.4369 43.3242 71.2979C43.191 67.2922 39.8529 64.0881 35.8475 64.0881H35.5807C35.3135 64.0881 34.9127 64.0881 34.6463 64.2213C29.1721 55.1422 26.9025 45.2623 27.7037 34.5807C28.2373 26.5697 30.9078 19.6266 35.5807 13.8852C39.4525 8.94508 46.9291 6.5418 52.0029 6.40861C66.1549 6.14139 72.1627 23.7656 72.5635 30.8422C74.2992 31.2426 77.2365 32.1775 79.2393 32.8451C77.6369 11.2156 64.2856 0 51.4688 0C39.4524 0 28.3709 8.67869 23.9647 21.4963C17.8234 38.5865 21.8287 55.009 29.3053 67.9602C28.6381 68.8947 28.2373 70.3635 28.3709 71.8324V71.832Z" fill="#764ABC"/>
</svg>

<svg viewBox="0 0 105 100" fill="none" xmlns="http://www.w3.org/2000/svg"><path d="M72.697 69.563c3.872-.401 6.81-3.739 6.675-7.745-.133-4.005-3.47-7.21-7.476-7.21h-.267c-4.14.134-7.343 3.606-7.21 7.745.134 2.002.935 3.738 2.136 4.94-4.539 8.945-11.482 15.488-21.896 20.962-7.076 3.738-14.419 5.074-21.762 4.14-6.008-.802-10.681-3.472-13.619-7.879-4.272-6.542-4.672-13.619-1.067-20.695 2.537-5.073 6.541-8.812 9.078-10.681-.534-1.736-1.335-4.673-1.735-6.81C-3.806 60.35-1.803 79.31 4.072 88.256c4.405 6.676 13.35 10.815 23.23 10.815 2.67 0 5.341-.267 8.011-.934 17.09-3.338 30.041-13.486 37.384-28.573zm23.498-16.556c-10.147-11.884-25.1-18.426-42.19-18.426H51.87c-1.201-2.403-3.738-4.006-6.542-4.006h-.267c-4.139.134-7.343 3.605-7.21 7.745.134 4.005 3.472 7.21 7.477 7.21h.267c2.937-.134 5.474-2.003 6.542-4.54h2.403c10.147 0 19.76 2.937 28.439 8.678 6.675 4.407 11.482 10.148 14.152 17.09 2.27 5.608 2.136 11.083-.267 15.756-3.738 7.076-10.013 10.948-18.291 10.948-5.34 0-10.414-1.602-13.085-2.804-1.468 1.335-4.139 3.471-6.008 4.807 5.742 2.67 11.616 4.14 17.224 4.14 12.817 0 22.296-7.078 25.901-14.154 3.872-7.744 3.605-21.096-6.409-32.444zM28.371 71.832c.134 4.006 3.471 7.21 7.476 7.21h.268c4.139-.133 7.343-3.605 7.21-7.744-.134-4.006-3.472-7.21-7.478-7.21h-.266c-.268 0-.668 0-.935.133-5.474-9.079-7.744-18.959-6.942-29.64.533-8.011 3.204-14.954 7.877-20.696 3.871-4.94 11.348-7.343 16.422-7.476 14.152-.268 20.16 17.357 20.56 24.433 1.736.4 4.674 1.336 6.676 2.003C77.637 11.215 64.286 0 51.47 0 39.452 0 28.37 8.679 23.965 21.496c-6.142 17.09-2.136 33.513 5.34 46.464-.667.935-1.068 2.404-.934 3.872z" fill="#764ABC"/></svg>
